X:1
T: Diane Kathleen
C:
R:Strathspey
Q: 128
K:F
M:4/4
L:1/16
|:C4|F4 F4 E4 D2C2|F6 A2 c8|d4 d4 c2A2 G2F2 |D12C4|
F4 F4 E4 D2C2|F6 A2 c8|B2c2 d2A2 B2G2 F2E2|F12c4|
d4 f4 c4 f4|B2A2 G2F2 A8|G4 G4 G6 F2|E2F2 G2A2 B6 c2|
d2e2 f2d2 c2e2 f2c2|B2A2 G2F2 D6 E2|1F4 F4 G4 c4|F12:|2F4 A4 c4 d2e2|f12||
